X:716
T:Kate Martin's Waltz
C:Blair Douglas
S:As played by The Big Squeeze ceilidh band
Z:Nigel Gatherer
M:3/4
L:1/8
K:G
G>A | B3 AB>g | e3 dG>A | B3  AG>A | B3 AG>A 
      B3 AB>g | e4   B2 | A6-      | A4  
G>A | B3 AB>g | e3 dG>A | B d3 d>e | d4
G>A | B3 AB>d | A3 GA>B | AG-  G4  | G4     :| 
B>d | e3 de>g | ed3 G>B | d3  Bd>e | d4
g>d | d3 Bg>e | e3 dg>e | d3  Bd>e | d4   
G>A | B3 AB>d | A3 GA>B | AG-  G4  | G4     :|
